X:1
T:Llanberis, 76.76 D
T:Llanberis, 76.76 D
T:Samuel Wesley, 1835
T:Public Domain Courtesy of the Cyber Hymnal™
C:Samuel Wesley, 1835
Z:Public Domain
Z:Courtesy of the Cyber Hymnal™
%%score ( 1 2 ) ( 3 4 )
L:1/8
Q:1/4=110
M:4/4
K:Bb
V:1 treble 
V:2 treble 
V:3 bass 
V:4 bass 
V:1
 [DF]2 | [FB]2 [FA]2 [FB]2 [Gc]2 | [EA]2 [DB]4 [GB]2 | [Fc]2 [Fd]2 [Ge]2 [Fc]2 | [Fd]6 [Fd]2 | %5
 [Fc]2 [CF]2 [=EB]2 [FA]2 | [=EG]2 [EG]4 [Ec]2 | [DF]2 [FA]2 [GB]2 [=EG]2 | F6 [Fc]2 | %9
 [Fd]2 [Ac]2 [GB]2 [^FA]2 | [GB]2 [DG]4 [DG]2 | [Ge]2 [Fd]2 [Ec]2 [DB]2 | [FA]6 F2 | %13
 [FG]2 [Ec]2 [FA]2 [FB]2 | [Fe]2 [Fd]4 [Gc]2 | [EA]2 [DB]2 [Gc]2 [EA]2 | [DB]6 |] %17
V:2
 x2 | x8 | x8 | x8 | x8 | x8 | x8 | x8 | F6 x2 | x8 | x8 | x8 | x6 F2 | x8 | x8 | x8 | x6 |] %17
V:3
 [B,,B,]2 | [B,,D]2 [C,E]2 [D,D]2 [E,C]2 | [F,C]2 [G,B,]4 [G,D]2 | %3
 [E,A,]2 [D,B,]2 [C,B,]2 [F,A,]2 | [B,,B,]6 [B,,B,]2 | [A,,C]2 A,2 [G,C]2 [F,C]2 | %6
 [C,C]2 [C,C]4 [A,,C]2 | [D,A,]2 [D,D]2 [B,,D]2 [C,B,]2 | [F,A,]6 [F,A,]2 | %9
 [B,,B,]2 [C,E]2 [D,D]2 [D,D]2 | [G,D]2 [G,,B,]4 [=B,,G,]2 | [C,G,]2 [D,=B,]2 [E,C]2 [=E,G,]2 | %12
 [F,C]6 [D,B,]2 | [E,B,]2 [E,C]2 [E,C]2 [D,B,]2 | [C,A,]2 [B,,B,]4 [E,G,]2 | %15
 [F,C]2 [G,B,]2 [E,E]2 [F,C]2 | [B,,B,]6 |] %17
V:4
 x2 | x8 | x8 | x8 | x8 | x2 A,2 x4 | x8 | x8 | x8 | x8 | x8 | x8 | x8 | x8 | x8 | x8 | x6 |] %17

